X:16852
T:The Holly Bush
R:Reel
S:
H:
N:See 48
D:Milltown Session
Z:Adrian Scahill
M:4/4
L:1/8
K:E
B2GB EBGB|Bcef gefe|=dAA2 FAA2|=dfed BAFA|\
B2GB EBGB|Bcef gefe|=dAA2 defc|=dBAF E4:||\
Beed efga|beed e=dBd|A=ddc defa|bafe =dBAd|\
Beed efga|beed e=dBc|=dfec dBAd|BFAF E4:||
